img/icons/social/WhatsApp_footer.svg

<svg width="30" height="30" viewBox="0 0 30 30" fill="none" xmlns="http://www.w3.org/2000/svg">
<circle cx="15" cy="15" r="14.5" fill="black" stroke="black"/>
<g clip-path="url(#clip0_63899_11)">
<path d="M11.3887 21.4959L11.4814 21.5468C12.6346 22.1794 13.9602 22.5399 15.372 22.5399C19.8186 22.5399 23.4194 18.9654 23.4194 14.5603C23.4194 10.1551 19.8184 6.58057 15.3722 6.58057C10.9254 6.58057 7.32449 10.1551 7.32449 14.5603C7.32449 16.0676 7.74624 17.4772 8.47845 18.6795L8.53849 18.7781L8.50142 18.8875L7.16138 22.8386L11.2879 21.5279L11.3887 21.4959Z" fill="black" stroke="white"/>
<path d="M14.1575 12.5342C14.2245 12.6673 14.2952 12.8776 14.1746 13.1166C14.1659 13.134 14.1574 13.1512 14.149 13.1684L14.149 13.1685C14.0967 13.2752 14.045 13.3805 13.9349 13.508C13.9097 13.5371 13.8804 13.5724 13.8491 13.6101L13.8442 13.6159L13.8436 13.6167C13.7685 13.7071 13.6826 13.8106 13.6127 13.8797C13.5861 13.9059 13.5691 13.9232 13.5562 13.9391C13.5425 13.9538 13.5438 13.9653 13.5621 13.9912C13.6776 14.1882 14.075 14.8291 14.657 15.3437C15.2812 15.8955 15.8114 16.1244 16.1059 16.2515L16.1084 16.2526C16.1685 16.2786 16.2188 16.3003 16.2578 16.3197C16.3317 16.3564 16.3703 16.3593 16.3703 16.3593L16.3707 16.359C16.3707 16.359 16.3866 16.3479 16.4052 16.3268C16.5284 16.1875 16.9108 15.7411 17.0368 15.5533C17.1326 15.4104 17.2594 15.3101 17.4287 15.291C17.5696 15.2752 17.7043 15.3236 17.7911 15.3549L17.7924 15.3554C17.9018 15.3947 18.2171 15.5428 18.5123 15.6841C18.8156 15.8293 19.1214 15.9789 19.2254 16.0303C19.2547 16.0449 19.2858 16.0598 19.3167 16.0746L19.3245 16.0784L19.3283 16.0802C19.3868 16.1083 19.4443 16.1359 19.4887 16.1602C19.5598 16.1989 19.6594 16.2592 19.7222 16.3623L19.7229 16.3636C19.7683 16.4391 19.78 16.5327 19.7848 16.5934C19.7906 16.6678 19.7894 16.7559 19.781 16.8524C19.7642 17.0459 19.7167 17.2888 19.6237 17.5478C19.5085 17.8668 19.1953 18.1386 18.9057 18.3243C18.6126 18.5121 18.2682 18.6596 18.0217 18.6819C17.9744 18.6861 17.9459 18.6931 17.9034 18.7035L17.9029 18.7036C17.8762 18.7101 17.8441 18.7179 17.7985 18.7272C17.6904 18.7494 17.5646 18.763 17.3835 18.7456C17.0372 18.7122 16.4859 18.5644 15.4379 18.1553C14.3429 17.7276 13.4594 16.9619 12.8419 16.2968C12.5318 15.963 12.2858 15.6512 12.1107 15.4142C12.0231 15.2957 11.9532 15.1958 11.902 15.1214C11.8819 15.0921 11.8646 15.0666 11.8505 15.046L11.84 15.0306C11.8321 15.019 11.8259 15.0099 11.821 15.0029C11.8157 14.9952 11.8138 14.9926 11.8138 14.9926L11.8134 14.9921C11.7577 14.9187 11.5382 14.6292 11.3319 14.2263C11.1265 13.8252 10.9229 13.2904 10.9229 12.7316C10.9229 11.6922 11.4473 11.1374 11.669 10.9029L11.6691 10.9028C11.6839 10.8872 11.6975 10.8728 11.7094 10.8599C11.9536 10.5957 12.2482 10.5244 12.442 10.5244C12.5198 10.5244 12.596 10.5293 12.6617 10.5335L12.6637 10.5336C12.7316 10.538 12.7866 10.5415 12.8365 10.5415C12.8419 10.5415 12.8489 10.5411 12.8679 10.5399L12.8684 10.5399C12.8845 10.5388 12.909 10.5373 12.9355 10.5373C12.9919 10.5373 13.0665 10.5441 13.1475 10.5788C13.3132 10.65 13.4335 10.8053 13.53 11.0351C13.5851 11.1664 13.6651 11.3593 13.7497 11.5636C13.7971 11.6779 13.8459 11.7957 13.8927 11.9082C13.9581 12.0656 14.0195 12.2129 14.0677 12.327C14.0918 12.3841 14.1124 12.4324 14.1285 12.4693C14.1365 12.4877 14.1431 12.5028 14.1484 12.5144L14.1548 12.5284L14.1567 12.5325L14.1575 12.5342Z" fill="white"/>
</g>
<defs>
<clipPath id="clip0_63899_11">
<rect width="18" height="18" fill="white" transform="translate(6 6)"/>
</clipPath>
</defs>
</svg>

<svg width="30" height="30" fill="none" xmlns="http://www.w3.org/2000/svg"><circle cx="15" cy="15" r="14.5" fill="#000" stroke="#000"/><g clip-path="url(#clip0_63899_11)"><path d="M11.389 21.496l.092.05a8.064 8.064 0 003.891.994c4.447 0 8.047-3.575 8.047-7.98s-3.6-7.98-8.047-7.98c-4.447 0-8.048 3.575-8.048 7.98 0 1.508.422 2.917 1.154 4.12l.06.098-.037.11-1.34 3.95 4.127-1.31.1-.032z" fill="#000" stroke="#fff"/><path d="M14.158 12.534a.62.62 0 01.017.583 6.171 6.171 0 00-.026.051 1.416 1.416 0 01-.214.34l-.086.102-.005.006a3.82 3.82 0 01-.231.264.774.774 0 00-.057.06c-.013.014-.012.025.006.051.116.197.513.838 1.095 1.353.624.552 1.154.78 1.449.908h.002c.06.027.11.048.15.068.074.036.112.04.112.04v-.001s.017-.011.035-.032c.123-.14.506-.586.632-.774.096-.143.222-.243.392-.262a.813.813 0 01.362.064h.001c.11.04.425.188.72.33a75.313 75.313 0 01.805.39l.008.003.003.002c.059.028.116.056.16.08a.6.6 0 01.234.202v.002a.533.533 0 01.063.23 1.62 1.62 0 01-.004.258 2.821 2.821 0 01-.157.696c-.115.319-.429.59-.718.776-.293.188-.638.336-.884.358-.048.004-.076.011-.119.021a1.33 1.33 0 01-.52.042c-.346-.033-.897-.18-1.945-.59-1.095-.427-1.979-1.193-2.596-1.858a10.269 10.269 0 01-.94-1.176l-.051-.075-.011-.015a2.894 2.894 0 00-.019-.028l-.007-.01a5.201 5.201 0 01-.482-.767c-.206-.4-.41-.936-.41-1.494a2.5 2.5 0 01.747-1.83l.04-.042a1.01 1.01 0 01.733-.336c.078 0 .154.005.22.01h.002a2.775 2.775 0 00.204.006.53.53 0 01.28.039c.165.071.286.226.382.456l.22.529.143.344a82.818 82.818 0 00.255.606l.007.014.002.005v.001z" fill="#fff"/></g><defs><clipPath id="clip0_63899_11"><path fill="#fff" transform="translate(6 6)" d="M0 0h18v18H0z"/></clipPath></defs></svg>
